X:367
T:Soldier and The Sailor. (p)1696.PLFD1.367, The
M:6/4
L:1/4
Q:3/4=80
S:Playford, Dancing Master,9th Ed,1st Supp.,1696.
O:England;London
H:1696.
Z:Chris Partington
K:Bb
F|DFBBcd|B3F2B|Bcddef|d3B2c|
deffed|g3G2A|BcddcB|f3F2G|
ABcc2A|F3-F2G|ABcc2f|f3-f2|
|:c|c>dcc2d|e3-e2f|g>_agf2e|d3-d2e|
f>gfe2d|c3cde/f/|gfe/d/c2B|A3F2f|
gaba2b|b3-b2c|d>efc2B|B3-B2:|
